#TITLE My First Chiptune
#COMPOSER Your Name
#PROGRAMER Your Name
@0 = { 2 }
@1 = { 0 }
@v0 = { 15 15 14 14 13 13 12 12 11 10 10 9 8 7 6 5 4 3 2 0 }
@v1 = { 12 12 11 11 10 10 9 9 8 7 7 7 7 7 7 6 6 6 6 5 5 5 5 4 4 4 4 3 3 3 3 2 2 2 2 1 1 1 1 0 }
@v2 = { 10 8 6 4 2 0 }
@MP0 = { 2 4 4 }
ABCD t120
A o4 @@0 @v0 c16 d16 e16 c16 d16 e16 c16 e16 d16 e16 f16 d16 e16 f16 d16 f16 [c16 > c16 <]8
B o4 @@1 @v1 c16 d16 e16 c16 d16 e16 c16 e16 d16 e16 f16 d16 e16 f16 d16 f16 [c16 > c16 <]8
C o4 MP0 c16 d16 e16 c16 d16 e16 c16 e16 d16 e16 f16 d16 e16 f16 d16 f16 [c16 > c16 <]8
D @v2 q4 [a16 a16 g16 a16]8